site/static/img/page-produits/serviette-lavable.svg

<?xml version="1.0" encoding="UTF-8"?>
<svg width="95px" height="95px" viewBox="0 0 95 95" version="1.1" xmlns="http://www.w3.org/2000/svg" xmlns:xlink="http://www.w3.org/1999/xlink">
    <title>Group 6</title>
    <g id="Page-1" stroke="none" stroke-width="1" fill="none" fill-rule="evenodd">
        <g id="QUELS-PRODUITS-DEPOSER" transform="translate(-1008.000000, -756.000000)">
            <g id="Group-10" transform="translate(1008.700000, 756.700000)">
                <path d="M13.73554,56.9718764 C4.92024,67.7098764 1.96144,75.2862764 1.96144,75.2862764 C2.28904,87.2241764 11.28244,90.0035764 21.91254,92.2928764 C32.54134,94.5821764 35.64704,92.2928764 45.78574,81.3377764 C55.92444,70.3813764 66.39074,66.1290764 74.89404,65.8027764 C83.39734,65.4751764 89.61004,68.5821764 89.61004,68.5821764 L93.9845976,63.1858764 C93.9845976,63.1858764 84.70514,52.0669764 83.72364,43.0722764 C82.74344,34.0788764 89.44754,27.5372764 92.71834,20.1792764 C95.98784,12.8212764 92.55454,11.3496764 86.66814,6.60727644 C80.78044,1.86487644 73.74874,2.19117644 67.69854,3.33647644 C61.64834,4.48177644 49.71174,16.9084764 39.89934,21.3245764 C30.08824,25.7393764 15.69854,22.6323764 15.69854,22.6323764 L9.97464,27.5372764 C9.97464,27.5372764 26.49114,41.4368764 13.73554,56.9718764" id="Fill-48" fill="#C5E2E0"></path>
                <path d="M11.7741,54.3560164 C2.9575,65.0927164 -1.42108547e-14,72.6704164 -1.42108547e-14,72.6704164 C0.3263,84.6083164 9.321,87.3877164 19.9498,89.6770164 C30.5786,91.9663164 33.6856,89.6770164 43.8243,78.7206164 C53.963,67.7642164 64.428,63.5132164 72.9313,63.1856164 C81.4346,62.8593164 87.6486,65.9663164 87.6486,65.9663164 L92.0224167,60.5700164 C92.0224167,60.5700164 82.7437,49.4498164 81.7622,40.4564164 C80.7807,31.4630164 87.4848,24.9214164 90.7556,17.5634164 C94.0264,10.2041164 90.5918,8.73251644 84.7054,3.99011644 C78.8177,-0.752283562 71.7873,-0.424683562 65.7371,0.720616438 C59.6856,1.86461644 47.749,14.2926164 37.9379,18.7074164 C28.1255,23.1235164 13.7358,20.0152164 13.7358,20.0152164 L8.0119,24.9214164 C8.0119,24.9214164 24.5297,38.8210164 11.7741,54.3560164" id="Fill-50" fill="#FFFFFF"></path>
                <path d="M19.45983,25.7388564 C19.45983,26.6423564 18.25083,27.3742564 16.76103,27.3742564 C15.26993,27.3742564 14.06353,26.6423564 14.06353,25.7388564 C14.06353,24.8366564 15.26993,24.1034564 16.76103,24.1034564 C18.25083,24.1034564 19.45983,24.8366564 19.45983,25.7388564" id="Fill-52" fill="#E7364B"></path>
                <path d="M76.03908,53.3746464 C76.03908,54.2781464 74.83008,55.0100464 73.34028,55.0100464 C71.84918,55.0100464 70.64278,54.2781464 70.64278,53.3746464 C70.64278,52.4711464 71.84918,51.7392464 73.34028,51.7392464 C74.83008,51.7392464 76.03908,52.4711464 76.03908,53.3746464" id="Fill-54" fill="#E7364B"></path>
                <path d="M87.89391,59.7520564 C87.89391,60.6555564 86.68491,61.3874564 85.19641,61.3874564 C83.70531,61.3874564 82.49761,60.6555564 82.49761,59.7520564 C82.49761,58.8485564 83.70531,58.1166564 85.19641,58.1166564 C86.68491,58.1166564 87.89391,58.8485564 87.89391,59.7520564" id="Fill-56" fill="#E7364B"></path>
                <path d="M85.19615,19.4374964 C85.19615,19.4374964 88.36555,14.6417964 84.33165,11.3696964 C80.29645,8.10019644 72.66545,4.39389644 69.17885,4.50309644 C65.68965,4.61099644 59.69405,7.44629644 57.18635,10.4986964 C54.67865,13.5510964 36.69055,34.9178964 30.80415,41.7857964 C24.91775,48.6536964 7.58355,65.9878964 6.82045,70.2388964 C6.05735,74.4911964 8.33235,80.9222964 14.06275,82.8852964 C19.79315,84.8469964 29.16875,86.3731964 30.80415,85.1745964 C32.43955,83.9746964 81.15575,27.5052964 85.19615,19.4374964" id="Fill-58" fill="#E7364B"></path>
            </g>
        </g>
    </g>
</svg>

<svg height="143" viewBox="0 0 143 143" width="143" xmlns="http://www.w3.org/2000/svg"><g fill="none" fill-rule="evenodd"><circle cx="71.5" cy="71.5" fill="#ffd8dd" r="71.5"/><g transform="translate(24.7 24.7)"><path d="m13.73554 56.9718764c-8.8153 10.738-11.7741 18.3144-11.7741 18.3144.3276 11.9379 9.321 14.7173 19.9511 17.0066 10.6288 2.2893 13.7345 0 23.8732-10.9551 10.1387-10.9564 20.605-15.2087 29.1083-15.535 8.5033-.3276 14.716 2.7794 14.716 2.7794l4.3745576-5.3963s-9.2794576-11.1189-10.2609576-20.1136c-.9802-8.9934 5.7239-15.535 8.9947-22.893 3.2695-7.358-.1638-8.8296-6.0502-13.57199996-5.8877-4.7424-12.9194-4.4161-18.9696-3.2708s-17.9868 13.57199996-27.7992 17.98809996c-9.8111 4.4148-24.2008 1.3078-24.2008 1.3078l-5.7239 4.9049s16.5165 13.8996 3.7609 29.4346" fill="#c5e2e0"/><path d="m11.7741 54.3560164c-8.8166 10.7367-11.7741 18.3144-11.7741 18.3144.3263 11.9379 9.321 14.7173 19.9498 17.0066s13.7358 0 23.8745-10.9564 20.6037-15.2074 29.107-15.535c8.5033-.3263 14.7173 2.7807 14.7173 2.7807l4.3738167-5.3963s-9.2787167-11.1202-10.2602167-20.1136 5.7226-15.535 8.9934-22.893c3.2708-7.3593-.1638-8.83089996-6.0502-13.57329996-5.8877-4.7424-12.9181-4.4148-18.9683-3.2695-6.0515 1.144-17.9881 13.57199996-27.7992 17.98679996-9.8124 4.4161-24.2021 1.3078-24.2021 1.3078l-5.7239 4.9062s16.5178 13.8996 3.7622 29.4346" fill="#fff"/><g fill="#e7364b"><path d="m19.45983 25.7388564c0 .9035-1.209 1.6354-2.6988 1.6354-1.4911 0-2.6975-.7319-2.6975-1.6354 0-.9022 1.2064-1.6354 2.6975-1.6354 1.4898 0 2.6988.7332 2.6988 1.6354"/><path d="m76.03908 53.3746464c0 .9035-1.209 1.6354-2.6988 1.6354-1.4911 0-2.6975-.7319-2.6975-1.6354s1.2064-1.6354 2.6975-1.6354c1.4898 0 2.6988.7319 2.6988 1.6354"/><path d="m87.89391 59.7520564c0 .9035-1.209 1.6354-2.6975 1.6354-1.4911 0-2.6988-.7319-2.6988-1.6354s1.2077-1.6354 2.6988-1.6354c1.4885 0 2.6975.7319 2.6975 1.6354"/><path d="m85.19615 19.4374964s3.1694-4.7957-.8645-8.0678c-4.0352-3.26949996-11.6662-6.97579996-15.1528-6.86659996-3.4892.1079-9.4848 2.9432-11.9925 5.99559996-2.5077 3.0524-20.4958 24.4192-26.3822 31.2871s-23.2206 24.2021-23.9837 28.4531c-.7631 4.2523 1.5119 10.6834 7.2423 12.6464 5.7304 1.9617 15.106 3.4879 16.7414 2.2893 1.6354-1.1999 50.3516-57.6693 54.392-65.7371"/></g></g></g></svg>
